static/app-icons/light-theme/124.svg

<svg xmlns="http://www.w3.org/2000/svg" xmlns:xlink="http://www.w3.org/1999/xlink" viewBox="0 0 32 32"><defs><linearGradient id="linear-gradient" x1="11" y1="23" x2="11" y2="10" gradientUnits="userSpaceOnUse"><stop offset=".4" stop-color="#fff"/><stop offset="1" stop-color="#fff" stop-opacity="0"/></linearGradient><linearGradient id="linear-gradient-2" x1="5845" y1="-576" x2="5845" y2="-589" gradientTransform="translate(-5824 598)" xlink:href="#linear-gradient"/><linearGradient id="linear-gradient-3" y1="32" x2="32" gradientUnits="userSpaceOnUse"><stop offset=".1" stop-color="#42be65"/><stop offset=".9" stop-color="#007d79"/></linearGradient><style>.cls-1{fill:#fff}.cls-4{fill:#001d6c}</style><mask id="mask" x="0" y="0" width="32" height="32" maskUnits="userSpaceOnUse"><path class="cls-1" d="M26 22H6a2 2 0 00-2 2v4a2 2 0 002 2h20a2 2 0 002-2v-4a2 2 0 00-2-2zm0 6H6v-4h20zM26 2H6a2 2 0 00-2 2v4a2 2 0 002 2h20a2 2 0 002-2V4a2 2 0 00-2-2zm0 6H6V4h20z"/><path fill="url(#linear-gradient)" d="M10 10h2v13h-2z"/><path transform="rotate(180 21 15.5)" fill="url(#linear-gradient-2)" d="M20 9h2v13h-2z"/></mask></defs><g id="Layer_2" data-name="Layer 2"><g id="Light_theme_icons" data-name="Light theme icons"><circle class="cls-4" cx="23" cy="26" r="1"/><circle class="cls-4" cx="9" cy="6" r="1"/><g mask="url(#mask)"><path fill="url(#linear-gradient-3)" d="M0 0h32v32H0z"/></g></g></g></svg>

<svg xmlns="http://www.w3.org/2000/svg" xmlns:xlink="http://www.w3.org/1999/xlink" viewBox="0 0 32 32"><defs><style>.cls-1{fill:#fff;}.cls-2{fill:url(#linear-gradient);}.cls-3{fill:url(#linear-gradient-2);}.cls-4{fill:#001d6c;}.cls-5{mask:url(#mask);}.cls-6{fill:url(#linear-gradient-3);}</style><linearGradient id="linear-gradient" x1="11" y1="23" x2="11" y2="10" gradientUnits="userSpaceOnUse"><stop offset="0.4" stop-color="#fff"/><stop offset="1" stop-color="#fff" stop-opacity="0"/></linearGradient><linearGradient id="linear-gradient-2" x1="5845" y1="-576" x2="5845" y2="-589" gradientTransform="translate(-5824 598)" xlink:href="#linear-gradient"/><mask id="mask" x="0" y="0" width="32" height="32" maskUnits="userSpaceOnUse"><path class="cls-1" d="M26,22H6a2,2,0,0,0-2,2v4a2,2,0,0,0,2,2H26a2,2,0,0,0,2-2V24A2,2,0,0,0,26,22Zm0,6H6V24H26Z"/><path class="cls-1" d="M26,2H6A2,2,0,0,0,4,4V8a2,2,0,0,0,2,2H26a2,2,0,0,0,2-2V4A2,2,0,0,0,26,2Zm0,6H6V4H26Z"/><rect class="cls-2" x="10" y="10" width="2" height="13"/><rect class="cls-3" x="20" y="9" width="2" height="13" transform="translate(42 31) rotate(180)"/></mask><linearGradient id="linear-gradient-3" y1="32" x2="32" gradientUnits="userSpaceOnUse"><stop offset="0.1" stop-color="#42be65"/><stop offset="0.9" stop-color="#007d79"/></linearGradient></defs><g id="Layer_2" data-name="Layer 2"><g id="Light_theme_icons" data-name="Light theme icons"><circle class="cls-4" cx="23" cy="26" r="1"/><circle class="cls-4" cx="9" cy="6" r="1"/><g class="cls-5"><rect class="cls-6" width="32" height="32"/></g></g></g></svg>
